(Generated with: DXF2GCODE, Version: PyQt4 Beta, Date: $Date: Tue Jun 9 17:40:00 2015 +0200 $)
(Created from file: C:/Users/shiva/Desktop/desktopfolders/INTERN/2.~gna letter.dxf)
(Time: Fri Sep 11 21:52:06 2015)
G20 (Units in inches) G90 (Absolute programming) G64 (Default cutting) G17 (XY plane) G40 (Cancel radius comp.) G49 (Cancel length comp.)
G0 Z   0.591 

(*** LAYER: 0 ***)
T1 M6
S6000

(* SHAPE Nr: 0 *)
G0 X-5212.704 Y   4.294
M3 M8
G0 Z   0.118 
F5
G1 Z  -0.059
F15
G1 X-5212.704 Y -96.642
G1 X-5292.229 Y -96.642
G1 X-5292.229 Y -79.207
G1 X-5287.760 Y -78.703
G1 X-5283.612 Y -77.236
G1 X-5280.974 Y -75.534
G1 X-5278.833 Y -73.362
G1 X-5276.553 Y -69.305
G1 X-5275.478 Y -64.452
G1 X-5275.664 Y -59.249
G1 X-5277.012 Y -54.403
G1 X-5279.421 Y -50.303
G1 X-5282.776 Y -47.192
G1 X-5285.478 Y -45.767
G1 X-5288.480 Y -45.041
G1 X-5293.423 Y -45.141
G1 X-5297.740 Y -46.145
G1 X-5301.737 Y -48.212
G1 X-5305.228 Y -51.144
G1 X-5305.228 Y -96.642
G1 X-5327.327 Y -96.642
G1 X-5327.327 Y -13.140
G1 X-5348.738 Y -13.140
G1 X-5348.738 Y -96.642
G1 X-5370.837 Y -96.642
G1 X-5370.837 Y   4.294
G1 X-5277.012 Y   4.294
G1 X-5277.012 Y -13.140
G1 X-5305.228 Y -13.140
G1 X-5305.228 Y -29.886
G1 X-5300.989 Y -28.317
G1 X-5294.370 Y -27.277
G1 X-5286.055 Y -27.169
G1 X-5279.546 Y -28.062
G1 X-5273.686 Y -29.848
G1 X-5267.973 Y -32.699
G1 X-5263.135 Y -36.290
G1 X-5258.853 Y -40.985
G1 X-5256.278 Y -45.031
G1 X-5253.843 Y -50.943
G1 X-5252.619 Y -57.137
G1 X-5252.607 Y -63.740
G1 X-5253.728 Y -70.299
G1 X-5255.937 Y -76.382
G1 X-5257.437 Y -79.207
G1 X-5234.803 Y -79.207
G1 X-5234.803 Y   4.294
G1 X-5212.704 Y   4.294
F5
G1 Z  -0.118
F15
G1 X-5212.704 Y -96.642
G1 X-5292.229 Y -96.642
G1 X-5292.229 Y -79.207
G1 X-5287.760 Y -78.703
G1 X-5283.612 Y -77.236
G1 X-5280.974 Y -75.534
G1 X-5278.833 Y -73.362
G1 X-5276.553 Y -69.305
G1 X-5275.478 Y -64.452
G1 X-5275.664 Y -59.249
G1 X-5277.012 Y -54.403
G1 X-5279.421 Y -50.303
G1 X-5282.776 Y -47.192
G1 X-5285.478 Y -45.767
G1 X-5288.480 Y -45.041
G1 X-5293.423 Y -45.141
G1 X-5297.740 Y -46.145
G1 X-5301.737 Y -48.212
G1 X-5305.228 Y -51.144
G1 X-5305.228 Y -96.642
G1 X-5327.327 Y -96.642
G1 X-5327.327 Y -13.140
G1 X-5348.738 Y -13.140
G1 X-5348.738 Y -96.642
G1 X-5370.837 Y -96.642
G1 X-5370.837 Y   4.294
G1 X-5277.012 Y   4.294
G1 X-5277.012 Y -13.140
G1 X-5305.228 Y -13.140
G1 X-5305.228 Y -29.886
G1 X-5300.989 Y -28.317
G1 X-5294.370 Y -27.277
G1 X-5286.055 Y -27.169
G1 X-5279.546 Y -28.062
G1 X-5273.686 Y -29.848
G1 X-5267.973 Y -32.699
G1 X-5263.135 Y -36.290
G1 X-5258.853 Y -40.985
G1 X-5256.278 Y -45.031
G1 X-5253.843 Y -50.943
G1 X-5252.619 Y -57.137
G1 X-5252.607 Y -63.740
G1 X-5253.728 Y -70.299
G1 X-5255.937 Y -76.382
G1 X-5257.437 Y -79.207
G1 X-5234.803 Y -79.207
G1 X-5234.803 Y   4.294
G1 X-5212.704 Y   4.294
F5
G1 Z   0.118
G0 Z   0.591 
M9 M5
G0 X   0.000 Y   0.000
M2 (Program end)